X: 57
T: 53. QUADRILLE
B: Sam Bayard, "Hill Country Tunes" 1944 #53
S: Played by Robert Crow, Claysville PA, Sept 13, 1943.
R: reel
M: 4/4
L: 1/8
Z: 2010 John Chambers <jc:trillian.mit.edu>
K: G
D2- |\
D2D2 DcBA | E2[c2E2] [c2E2]AG | FGAB cdef | g2d2 ecB2 |
D4 D2{c}BA | E2[c2E2] [c2E2]AG | FGAB cdef | g2 ((3agf) [gB]z :|
ef |\
g2f2 g2d2 | ed^/cd B2G2 | [AD]FDF [AD]cBA | GABc d2ef |
g2f2 g2d2 | edcd B2G2 | AFDF AcBA | G2[GG2]G [GG]z |]

%%sep 2 1 500
%%sep 1 1 500

